people/success-uploading.svg

<svg xmlns="http://www.w3.org/2000/svg" viewBox="0 0 16 16"><defs><style>.cls-1{fill:#010101}</style></defs><title>success-uploading</title><g id="Layer_1" data-name="Layer 1"><path class="cls-1" d="M14 5.342h-3.4a1.083 1.083 0 0 1-1.09-1.073V.87a.848.848 0 0 1 .85-.844.838.838 0 0 1 .6.248L14.591 3.9A.842.842 0 0 1 14 5.342zM10.873 3.98h1.867l-1.867-1.865z"/><path class="cls-1" d="M13.775 15.981H2.625a1.066 1.066 0 0 1-1.065-1.065V1.084A1.066 1.066 0 0 1 2.625.019H10.3v1.363H2.923v13.236h10.554V4.535h1.363v10.381a1.066 1.066 0 0 1-1.065 1.065z"/><path class="cls-1" d="M7.921 10.24a.931.931 0 0 1-.66-.272l-1.019-1.02a.681.681 0 1 1 .964-.963l.716.716 1.651-1.652a.681.681 0 0 1 .964.963L8.582 9.967a.932.932 0 0 1-.661.273z"/></g></svg>

<svg xmlns="http://www.w3.org/2000/svg" viewBox="0 0 16 16"><defs><style>.cls-1{fill:#010101;}</style></defs><title>success-uploading</title><g id="Layer_1" data-name="Layer 1"><path class="cls-1" d="M14,5.342H10.6A1.083,1.083,0,0,1,9.51,4.269V.87a.848.848,0,0,1,.85-.844.838.838,0,0,1,.6.248L14.591,3.9A.842.842,0,0,1,14,5.342ZM10.873,3.98H12.74L10.873,2.115Z"/><path class="cls-1" d="M13.775,15.981H2.625A1.066,1.066,0,0,1,1.56,14.916V1.084A1.066,1.066,0,0,1,2.625.019H10.3V1.382H2.923V14.618H13.477V4.535H14.84V14.916A1.066,1.066,0,0,1,13.775,15.981Z"/><path class="cls-1" d="M7.921,10.24a.931.931,0,0,1-.66-.272L6.242,8.948a.681.681,0,1,1,.964-.963l.716.716L9.573,7.049a.681.681,0,0,1,.964.963L8.582,9.967A.932.932,0,0,1,7.921,10.24Z"/></g></svg>
